images/search-icon.svg

<svg width="16" height="16" viewBox="0 0 16 16" fill="none" xmlns="http://www.w3.org/2000/svg">
<path d="M15.7656 14.6895L10.6934 9.6172C11.4805 8.5996 11.9062 7.35547 11.9062 6.04688C11.9062 4.48047 11.2949 3.01172 10.1895 1.9043C9.084 0.79687 7.61133 0.1875 6.04688 0.1875C4.48242 0.1875 3.00977 0.79883 1.9043 1.9043C0.79687 3.00977 0.1875 4.48047 0.1875 6.04688C0.1875 7.61133 0.79883 9.084 1.9043 10.1895C3.00977 11.2969 4.48047 11.9062 6.04688 11.9062C7.35547 11.9062 8.5977 11.4805 9.6152 10.6953L14.6875 15.7656C14.7024 15.7805 14.72 15.7923 14.7395 15.8004C14.7589 15.8084 14.7797 15.8126 14.8008 15.8126C14.8218 15.8126 14.8427 15.8084 14.8621 15.8004C14.8815 15.7923 14.8992 15.7805 14.9141 15.7656L15.7656 14.916C15.7805 14.9011 15.7923 14.8835 15.8004 14.864C15.8084 14.8446 15.8126 14.8238 15.8126 14.8027C15.8126 14.7817 15.8084 14.7609 15.8004 14.7414C15.7923 14.722 15.7805 14.7043 15.7656 14.6895ZM9.1406 9.1406C8.3125 9.9668 7.21484 10.4219 6.04688 10.4219C4.87891 10.4219 3.78125 9.9668 2.95312 9.1406C2.12695 8.3125 1.67188 7.21484 1.67188 6.04688C1.67188 4.87891 2.12695 3.7793 2.95312 2.95312C3.78125 2.12695 4.87891 1.67188 6.04688 1.67188C7.21484 1.67188 8.3145 2.125 9.1406 2.95312C9.9668 3.78125 10.4219 4.87891 10.4219 6.04688C10.4219 7.21484 9.9668 8.3145 9.1406 9.1406Z" fill="#808080"/>
</svg>

<svg xmlns="http://www.w3.org/2000/svg" width="16" height="16" fill="none"><path fill="gray" d="m15.766 14.69-5.073-5.073a5.807 5.807 0 0 0 1.213-3.57 5.824 5.824 0 0 0-1.716-4.143A5.816 5.816 0 0 0 6.047.188a5.824 5.824 0 0 0-4.143 1.716A5.813 5.813 0 0 0 .188 6.047c0 1.564.61 3.037 1.716 4.143a5.813 5.813 0 0 0 4.143 1.716c1.308 0 2.55-.426 3.568-1.21l5.072 5.07a.16.16 0 0 0 .227 0l.852-.85a.16.16 0 0 0 0-.226ZM9.14 9.14a4.351 4.351 0 0 1-3.094 1.282A4.351 4.351 0 0 1 2.953 9.14a4.351 4.351 0 0 1-1.281-3.094c0-1.168.455-2.268 1.281-3.094a4.351 4.351 0 0 1 3.094-1.281A4.34 4.34 0 0 1 9.14 2.953a4.351 4.351 0 0 1 1.28 3.094 4.348 4.348 0 0 1-1.28 3.094Z"/></svg>
